X: 55
T:Cuffeys
M:4/4
L:1/8
C:Old Time
R:Reel
K:G
ef|"G"g2 ed BeBG|F2 GA BdBG|"D"D2 FA cBcd|edBc d2 ef||!
"G"g2 ed BeBG|F2 GA BdBG|"D"D2 FA cBAF|1 "G"G3 A b ef:|2 "G"G3 A B Bc:|!
"G"d2 d2 d2 d2|dedc Bc d2|"C"e3 f e2 e2|efed "D"Bdef|!
"G"g2 ga gfef|g2 ed BdBG|"D"D2 AB cBAF|1 "G"G3 A B Bc:|2 "G"G6
